client/filepreviewer/pdfjs/web/images/findbarButton-previous.svg

<svg width="16" height="16" viewBox="0 0 16 16" fill="none" xmlns="http://www.w3.org/2000/svg">
<path d="M5.001 8.352L10.466 13.818C10.5845 13.9303 10.7421 13.9918 10.9053 13.9895C11.0685 13.9872 11.2244 13.9212 11.3397 13.8057C11.4549 13.6902 11.5205 13.5342 11.5225 13.3709C11.5244 13.2077 11.4625 13.0502 11.35 12.932L6.416 7.999L11.349 3.067C11.4614 2.94864 11.5231 2.79106 11.521 2.62786C11.5189 2.46466 11.4531 2.30874 11.3377 2.19333C11.2223 2.07792 11.0663 2.01215 10.9031 2.01003C10.7399 2.00792 10.5824 2.06962 10.464 2.182L5 7.647L5.001 8.352Z" fill="black"/>
</svg>

<svg xmlns="http://www.w3.org/2000/svg" width="16" height="16" fill="none"><path d="M5.001 8.352l5.465 5.466c.119.112.276.174.439.172s.319-.068.434-.184.181-.271.183-.435-.06-.321-.173-.439L6.416 7.999l4.933-4.932c.112-.118.174-.276.172-.439s-.068-.319-.183-.435-.271-.181-.435-.183-.321.06-.439.172L5 7.647l.001.705z" fill="#000"/></svg>
